X: 1
T: the Tempest
T: Ap Shenkin
R: jig
Z: 2007 John Chambers <jc:trillian.mit.edu>
B: NEFR #4
M: 6/8
L: 1/8
K: G
d/c/ !segno!\
| "G"B2B Bgf | "C"e2e efg | "G"ded "Em"dcB | "Am"cAA "D7"A2d/c/ \
| "G"B2B Bgf | "C"e2e efg | "G"ded "D7"cBA | "G"G2B G2 :|
g/a/ \
| "G"b2g "D7"a2f | "C"gfg "G"dcB | "C"cde "G"dg[bB] | "A7"BAA "D7"A2g/a/ \
| "G"b2g "D7"a2f | "C"gfe "D"agf | "G"bag "A7"fge | "D7"dgf ed!segno!c |]
